packages/icons/src/components/Logo/assets/dark/centos.svg

<svg width="20" height="20" viewBox="0 0 20 20" fill="none" xmlns="http://www.w3.org/2000/svg">
<g>
<path d="M10 19.9961C15.5207 19.9961 19.9961 15.5207 19.9961 10C19.9961 4.47931 15.5207 0.00390625 10 0.00390625C4.47931 0.00390625 0.00390625 4.47931 0.00390625 10C0.00390625 15.5207 4.47931 19.9961 10 19.9961Z" fill="#A14F8C"/>
<path d="M10 2.43359L7.78516 4.64844H4.65234V7.78125L2.43359 10L4.64844 12.2148V15.3516H7.78125L9.99609 17.5664L12.2109 15.3516H15.3516V12.2187L17.5664 10.0039L15.3516 7.78516L12.2148 4.64844L10 2.43359ZM10.6719 4.64844V7.03906L10 7.71484L9.32812 7.04297V4.64844H10.6719ZM6.69141 5.74219L8.38281 7.43359V8.38281H7.43359L5.74219 6.69141L6.69141 5.74219ZM4.65234 9.32812H7.04297L7.71484 10L7.04297 10.6719H4.65234V9.32812ZM12.9062 9.32812H15.2969V10.6719H12.9062L12.2344 10L12.9062 9.32812ZM7.46875 11.5781H8.41797V12.5273L6.73047 14.2188L5.78125 13.2695L7.46875 11.5781ZM11.5781 11.5781H12.5273L14.2188 13.2695L13.2695 14.2188L11.5781 12.5273V11.5781ZM10 12.2344L10.6719 12.9062V15.2969H9.32812V12.9062L10 12.2344Z" fill="white"/>
<path d="M10.6719 8.45312L10 9.05078L9.32813 8.45703V9.32812H8.45703L9.05078 10L8.45703 10.6719H9.33203V11.543L10.0039 10.9492L10.6758 11.543V10.6719H11.5508L10.9531 10L11.5469 9.32812H10.6719V8.45312ZM12.2187 4.65234L13.3086 5.74219L11.6172 7.43359V8.38281H12.5664L14.2578 6.69141L15.3516 7.78516V4.64844L12.2187 4.65234Z" fill="#EFA724"/>
</g>
<defs>
<clipPath id="clip0_375_363">
<rect width="20" height="20" fill="white"/>
</clipPath>
</defs>
</svg>

<svg xmlns="http://www.w3.org/2000/svg" width="20" height="20" fill="none" viewBox="0 0 20 20">
    <path fill="#a14f8c" d="M10 19.996c5.52 0 9.996-4.475 9.996-9.996 0-5.52-4.475-9.996-9.996-9.996C4.48.004.004 4.479.004 10c0 5.52 4.475 9.996 9.996 9.996"/>
    <path fill="#fff" d="M10 2.434 7.785 4.648H4.652v3.133L2.434 10l2.214 2.215v3.137h3.133l2.215 2.214 2.215-2.214h3.14v-3.133l2.215-2.215-2.214-2.219-3.137-3.137zm.672 2.214V7.04L10 7.715l-.672-.672V4.648zm-3.98 1.094 1.69 1.692v.949h-.948L5.742 6.69zm-2.04 3.586h2.391l.672.672-.672.672h-2.39zm8.254 0h2.39v1.344h-2.39L12.234 10zm-5.437 2.25h.949v.95l-1.688 1.69-.949-.948zm4.11 0h.948l1.692 1.692-.95.949-1.69-1.692zM10 12.234l.672.672v2.39H9.328v-2.39z"/>
    <path fill="#efa724" d="M10.672 8.453 10 9.051l-.672-.594v.871h-.871l.594.672-.594.672h.875v.871l.672-.594.672.594v-.871h.875L10.953 10l.594-.672h-.875zm1.547-3.8 1.09 1.09-1.692 1.69v.95h.95l1.69-1.692 1.095 1.094V4.648z"/>
</svg>
